!!!OTL: Von einem stolzen Dirnelein
!!!ARE: Europa, Mitteleuropa, Deutschland
!!!SCT: A0201A
!!!YEM: Copyright 1995, estate of Helmut Schaffrath.
**kern
*ICvox
*Ivox
!! Mixed meters:  3/2; 4/2
*M4/2
*k[b-]
*F:
{2f
2f
2f
=1
1cc
2a
=2
1b-
2g
=3
1.a}
=4
{2f
2f
2f
=5
1cc
2a
=6
1b-
2g
=7
1a}
{2f
=8
2f
2f
2f
2f
=9
*M3/2
1f
2g}
=10
{2a
=11
1b-
2g
=12
1f
2a
=13
1b-
2g
=14
1f}
{2f
=15
*M4/2
2a
2a
2b-
2b-
=16
1cc
2b-
2a
=17
1g
1f}
==
!!!AGN: Romanze, Ballade, Lied
!! J Werlin Hs. 1646 S. 234.
!!!ONB: ESAC (Essen Associative Code) Database: ALTDEU
!!!AMT: irregular
!!!AIN: vox
!!!EED: Helmut Schaffrath
!!!EEV: 1.0
*-
